X:817
T:Scott Skinner's Welcome To Inverness 
C:Joe Buchanan's Scottish Tome - Page 372.0
I:372 0
C:Alexander Grant
Z:Carl Allison
R:Strathspey
L:1/8
M:2/4
K:A
e | "A"AA/A/ cB/A/ | "A"(c/<e/)a/>e/ cB/A/ | "G"=GG/G/ BA/G/ | "G"(B/>d/)=g/>d/ BA/=G/ |
"A"AA/A/ cB/A/ | "A"(c/<e/)a/>e/ cB/A/ | "G"d/>c/B/>A/ =G/>A/B/>d/ | "A"(cA) A :|
((3e/f/g/) | "A"a>e c(B/A/) | "A"(c/<e/)a/>e/ cB/A/ | "G"=a>d B(A/=G/) | "G"B/>d/=g/>d/ BA/=G/ |
"A"a>e c(B/A/) | "A"(c/<e/)a/>e/ cB/A/ | "G"d/>c/B/>A/ =G/>A/B/>d/ | "A"(cA) A ((3e/f/g/) |
"A"a>e c(B/A/) | "A"(c/<e/)a/>e/ cB/A/ | "G"=gd B(A/=G/) | "G"(B/<d/)=g/>d/ BA/=G/ |
"A"AA/A/ cB/A/ | "A"(c/<e/)a/>e/ cB/A/ | "G"d/>c/B/>B/ =G/>A/B/>d/ | "A"(cA) A |]
e | "A"A/4A/4A/ (c/A/) e/>A/c/<A/ | "A"A/4A/4A/ (c/e/) c(B/A/) | "G"=G/4G/4G/ (B/G/) d/>G/B/<G/ | "G"=G/4G/4G/ (B/d/) B(A/G/) |
"A"A/4A/4A/ (c/A/) e/>A/c/<A/ | "A"A/4A/4A (c/e/) cB/A/ | "G"d/>c/B/>A/ =G/>A/B/>d/ | "A"(cA) A :|
((3e/f/g/) | "A"a/>g/a/>e/ (c/<A/)(c/<e/) | "A"a/>g/a/>e/ c(B/A/) | "G"=g/>f/g/>d/ (B/>=G/)(B/>d/) | "G"=g/>f/g/>d/ B(A/=G/) |
"A"a/>g/a/>e/ (c/<A/)(c/<e/) | "A"a/>g/a/>e/ c(B/A/) | "G"d/>c/B/>A/ =G/>A/B/>d/ | "A"(cA) A ((3e/f/g/) |
"A"a/>g/a/>e/ (c/<A/)(c/<e/) | "A"a/>g/a/>e/ c(B/A/) | "G"=g/>f/g/>d/ (B/>=G/)(B/>d/) | "G"=g/>f/g/>d/ B(A/=G/) |
"A"AA/A/ cB/A/ | "A"(c/>e/)a/>e/ cB/A/ | "G"d/>c/B/>A/ =G/>A/B/>d/ | "A"(cA) A |]

